X:1
T:Audite Audientes Me, CMD
T:Arthur Seymour Sullivan, 1875
T:Audite Audientes Me, CMD
T:Public Domain
C:Arthur Seymour Sullivan, 1875
Z:Public Domain
%%score ( 1 2 ) ( 3 4 )
L:1/8
M:4/4
K:Eb
V:1 treble 
V:2 treble 
V:3 bass 
V:4 bass 
V:1
 G2 | G2 G2 [DF]2 [EG]2 | A2 A2 [CEG]2 G2 | c2 G2 E2 D2 | C6 G2 | G2 G2 [A,E-F]2 [B,EG]2 | %6
 A2 A2 [B,EG]2 G2 | z2 F2 c2 c2 | [=B,DG=B]6 ||[K:C] GF | [EG]2 [EA]2 [EG]2 [CE]2 | %11
 [B,F]2 [B,G]2 [B,F]2 [B,D]2 | [CG]2 [Gc]2 [GB]2 [^FA]2 | [GB]6 [FG]2 | [EG]2 [Ge]2 [Ge]2 [Gd]2 | %15
 [Gc]2 G2 [GB]2 [FA]2 | [EG]2 C2 [CE]2 [B,D]2 | C6 |] %18
V:2
 G2 | [C-E]4 C4 | [C-F]4 x4 | c2 G2 E2 D2 | C6 G2 | [B,E-]4 x4 | [CE-]4 x4 | ([CF]4 [C_G]4) | x6 || %9
[K:C] x2 | x8 | x8 | x8 | x8 | x8 | x8 | x2 C2 x4 | C6 |] %18
V:3
 z2 | [C,-G,]4 F,2 G,2 | [C,-A,]4 [C,G,]2 z2 | [E,G,C]6 [F,G,=B,]2 | [C,,E,G,C]6 z2 | [E,,E,]8 | %6
 [A,,E,-]4 [E,,E,]2 z2 | [A,,-F,]4 [A,,^F,]4 | [G,,G,]6 ||[K:C] [G,B,]2 | %10
 [C,C]2 [G,,C]2 [C,C]2 [E,G,]2 | [D,G,]2 [G,,G,]2 [D,G,]2 [F,G,]2 | [E,G,]2 G,A, [D,B,]2 [D,C]2 | %13
 [G,B,]6 [B,D]2 | C2 [G,C]2 [F,B,]2 [F,B,]2 | [E,C]2 [E,C]2 [F,C]2 [D,C]2 | %16
 [G,C]2 [G,,E,]2 [G,,G,]2 [G,,F,]2 | [C,E,]6 |] %18
V:4
 x2 | x4 C,4 | x8 | G,,8 | x8 | x8 | x8 | x8 | x6 ||[K:C] x2 | x8 | x8 | x2 _E,2 x4 | x8 | C2 x6 | %15
 x8 | x8 | x6 |] %18

